X:408
T: Wo shuo laoban shi tiao niu
N: C1443
O: China,Hubei, Jiangling
S: I, 429]
R: Shange, Tiange, Haocaoge]
M: 2/4
L: 1/16
K: E
GBceB2ce | ccc2z4 |
BecBcecB | GeBBGec2 | GecBGec2 |
Gecec2B2 | B3cf4 | cfe2e2ec | B2c2B4 |
c2BcG2Be | ccc2z4 | Gecec2c2z4
GeBBGec2 | GecBGec2 |
cecBc2B2 | B3cf4 | f2efceec | B2c2B4 |
cecBcece | ccc2z4 | cecBB2B2z4
GeBBGec2 | GecBGec2 |
ceceB2B2 | B3cf4 | cfceecec | B2c2B4

@@@ Tune index: 6409
